documents/resources/images/browserstack-lightmode.svg

<svg fill="none" height="32" viewBox="0 0 180 32" width="180" xmlns="http://www.w3.org/2000/svg"><g clip-rule="evenodd" fill-rule="evenodd"><path d="m31.0345 15.5172c0 8.5702-6.9471 15.5173-15.5173 15.5173-8.56985 0-15.5172-6.9471-15.5172-15.5173 0-8.56985 6.94735-15.5172 15.5172-15.5172 8.5702 0 15.5173 6.94735 15.5173 15.5172z" fill="#ecb360"/><path d="m26.8966 13.9655c0 7.7129-6.0214 13.9655-13.4483 13.9655-7.42725 0-13.4483-6.2526-13.4483-13.9655 0-7.71287 6.02105-13.9655 13.4483-13.9655 7.4269 0 13.4483 6.25263 13.4483 13.9655z" fill="#d76835"/><path d="m27.931 12.4136c0 6.8561-5.3263 12.414-11.8969 12.414-6.56986 0-11.89616-5.5579-11.89616-12.414 0-6.85572 5.3263-12.4136 11.89616-12.4136 6.5706 0 11.8969 5.55788 11.8969 12.4136z" fill="#d33a41"/><path d="m26.8966 13.4484c0 6.2843-4.8633 11.3792-10.8622 11.3792-5.999 0-10.86198-5.0949-10.86198-11.3792 0-6.28488 4.86298-11.37943 10.86198-11.37943 5.9989 0 10.8622 5.09455 10.8622 11.37943z" fill="#b6cb46"/><path d="m25.8621 14.4826c0 5.7133-4.6317 10.345-10.345 10.345-5.71301 0-10.34468-4.6317-10.34468-10.345 0-5.71329 4.63167-10.34466 10.34468-10.34466 5.7133 0 10.345 4.63137 10.345 10.34466z" fill="#66ad4a"/><path d="m21.7241 12.4138c0 4.5706-3.7052 8.2759-8.2758 8.2759-4.57092 0-8.27588-3.7053-8.27588-8.2759 0-4.57062 3.70496-8.27586 8.27588-8.27586 4.5706 0 8.2758 3.70524 8.2758 8.27586z" fill="#aed7dc"/><path d="m22.7586 11.3793c0 3.9992-3.242 7.2414-7.2415 7.2414-3.9996 0-7.24125-3.2422-7.24125-7.2414 0-3.99945 3.24165-7.24136 7.24125-7.24136 3.9995 0 7.2415 3.24191 7.2415 7.24136z" fill="#5bb1cf"/><path d="m22.7586 11.8964c0 3.7136-2.7788 6.7243-6.2069 6.7243-3.428 0-6.2069-3.0107-6.2069-6.7243 0-3.71333 2.7789-6.72398 6.2069-6.72398 3.4281 0 6.2069 3.01065 6.2069 6.72398z" fill="#25a8c3"/><path d="m15.5171 18.6207c-2.8564 0-5.1723-2.5475-5.1723-5.6898 0-3.14236 2.3159-5.68951 5.1723-5.68951 2.8567 0 5.1725 2.54715 5.1725 5.68951 0 3.1423-2.3158 5.6898-5.1725 5.6898z" fill="#1b1a18"/><path d="m18.3395 11.2904c-.492.8232-1.4595 1.2993-2.1612 1.0627-.7018-.2364-.8716-1.0957-.3799-1.9192.4921-.82349 1.4596-1.2993 2.1613-1.06296s.8715 1.09566.3798 1.91946z" fill="#fffffe"/><g fill="#1b1a18"><path d="m157.671 21.3341c-.247-.6938-.371-1.5731-.371-2.7528 0-1.1798.124-2.0587.371-2.7529.692-1.9893 2.523-3.0765 4.921-3.0765 1.78 0 3.19.6706 4.129 1.7349.075.0926.099.2316-.024.3241l-1.558 1.2719c-.124.0925-.248.0697-.346-.0461-.594-.6245-1.212-.9714-2.201-.9714-1.063 0-1.879.4859-2.226 1.4573-.197.5552-.247 1.203-.247 2.0587 0 .856.05 1.527.247 2.0822.347.9482 1.163 1.4341 2.226 1.4341.989 0 1.607-.3469 2.201-.9714.098-.1158.222-.1158.346-.0232l1.558 1.2723c.123.0925.099.2083.024.3236-.939 1.0412-2.349 1.7122-4.129 1.7122-2.398 0-4.229-1.0873-4.921-3.077z"/><path d="m176.376 24.1567c-.173 0-.297-.0693-.396-.2315l-3.016-4.6729-1.608 1.7349v2.938c0 .139-.098.2315-.247.2315h-2.275c-.148 0-.247-.0925-.247-.2315v-15.26815c0-.13861.099-.23115.247-.23115h2.275c.149 0 .247.09254.247.23115v9.06855l4.081-4.4878c.148-.1622.272-.2315.469-.2315h2.523c.148 0 .197.1386.098.2315l-3.783 4.0712 4.352 6.6162c.075.0925.025.2315-.123.2315z"/><path d="m43.7924 21.7507h3.5114c1.6321 0 2.5469-.8792 2.5469-2.1976 0-1.2955-.9148-2.1744-2.5469-2.1744h-3.5114c-.0986 0-.1483.0461-.1483.1386v4.0945c0 .0925.0497.1389.1483.1389zm3.3631-6.7779c1.4837 0 2.3986-.8329 2.3986-2.0591 0-1.249-.9149-2.0819-2.3986-2.0819h-3.3631c-.0986 0-.1483.0461-.1483.1387v3.8633c0 .0925.0497.139.1483.139zm-6.4292-6.31575c0-.13861.0991-.23115.247-.23115h6.2564c3.5607 0 5.2421 1.6657 5.2421 4.187 0 1.7814-.89 2.7993-1.9536 3.3313v.0464c1.0387.3698 2.2503 1.6192 2.2503 3.5393 0 3.123-2.1019 4.6268-5.7862 4.6268h-6.009c-.1479 0-.247-.0925-.247-.2315z"/><path d="m54.8199 24.1567c-.1487 0-.2477-.0926-.2477-.2316v-10.6873c0-.139.099-.2316.2477-.2316h2.2747c.1483 0 .2473.0926.2473.2316v.9482h.0249c.5685-.8557 1.5823-1.4341 3.0909-1.4341.9393 0 1.879.3469 2.4972.9253.1238.1154.1487.2083.0493.3237l-1.3105 1.5503c-.0987.1154-.2225.1386-.346.0461-.544-.3241-1.1129-.532-1.7555-.532-1.5579 0-2.2503 1.0407-2.2503 2.8221v6.0377c0 .139-.099.2316-.2473.2316z"/><path d="m70.6072 20.6403c.198-.5785.2474-1.1104.2474-2.059 0-.9482-.0494-1.4574-.2474-2.0587-.3464-.9253-1.1125-1.4573-2.2254-1.4573-1.1128 0-1.9042.532-2.2502 1.4573-.1976.6013-.2473 1.1105-.2473 2.0587 0 .9486.0497 1.4805.2473 2.059.346.9254 1.1374 1.4573 2.2502 1.4573 1.1129 0 1.879-.5319 2.2254-1.4573zm-7.146.6938c-.2722-.7863-.3956-1.5266-.3956-2.7528 0-1.2259.1234-1.9661.3956-2.7529.6675-1.9429 2.4972-3.0765 4.9206-3.0765 2.3986 0 4.2283 1.1336 4.8962 3.0765.2718.7868.3956 1.527.3956 2.7529 0 1.2262-.1238 1.9665-.3956 2.7528-.6679 1.9433-2.4976 3.077-4.8962 3.077-2.4234 0-4.2531-1.1337-4.9206-3.077z"/><path d="m85.6683 24.1567c-.1487 0-.2473-.0925-.297-.2315l-2.2996-7.125h-.0493l-2.3244 7.125c-.0497.139-.1483.2315-.297.2315h-2.0274c-.1487 0-.2473-.0925-.2966-.2315l-3.7588-10.6874c-.0497-.139.0248-.2315.1732-.2315h2.3737c.1732 0 .2722.0693.3215.2315l2.2995 7.3564h.0497l2.2747-7.3564c.0497-.139.1732-.2315.3215-.2315h1.7804c.1484 0 .2722.0925.3215.2315l2.4234 7.3564h.0494l2.176-7.3564c.0493-.1622.1484-.2315.3215-.2315h2.3737c.1484 0 .2225.0925.1732.2315l-3.7588 10.6874c-.0493.139-.1483.2315-.2966.2315z"/><path d="m92.2387 22.6529c-.0987-.0926-.0987-.2312 0-.3237l1.4095-1.3881c.099-.0925.2473-.0925.3464 0 .8655.7403 2.2502 1.2723 3.4865 1.2723 1.4589 0 2.2006-.5552 2.2006-1.3187 0-.671-.4202-1.0872-1.9781-1.2262l-1.286-.1154c-2.423-.2315-3.6598-1.3881-3.6598-3.2852 0-2.1512 1.6569-3.516 4.6243-3.516 1.8546 0 3.4129.5784 4.4759 1.3648.124.0925.124.2311.049.3237l-1.211 1.3652c-.099.1153-.223.1153-.346.046-.7425-.4859-1.9292-.9253-3.1162-.9253s-1.8052.4859-1.8052 1.1565c0 .6481.4205 1.0411 1.9535 1.1801l1.2857.1158c2.4972.2311 3.6842 1.4341 3.6842 3.2616 0 2.2209-1.731 3.7708-4.9947 3.7708-2.4479 0-4.1293-.9022-5.1186-1.7582z"/><path d="m111.444 16.3836c-.321-.9021-1.211-1.4341-2.324-1.4341-1.137 0-2.028.532-2.349 1.4341-.099.2776-.149.5552-.149.9486 0 .0926.05.139.149.139h4.673c.099 0 .149-.0464.149-.139 0-.3934-.05-.671-.149-.9486zm-7.195 4.9273c-.248-.7167-.421-1.5727-.421-2.7296 0-1.1565.149-2.0355.396-2.7529.667-1.9429 2.497-3.0765 4.871-3.0765 2.448 0 4.229 1.1797 4.896 3.0765.273.7868.396 1.5503.396 3.3545 0 .1387-.099.2312-.272.2312h-7.344c-.099 0-.149.0465-.149.139 0 .3237.075.6013.174.8557.395 1.0875 1.335 1.6888 2.67 1.6888s2.201-.4626 2.794-1.0639c.124-.1158.248-.139.371-.0465l1.459 1.203c.124.0925.124.2083.025.324-1.014 1.1101-2.695 1.8969-4.896 1.8969-2.522 0-4.303-1.1566-4.97-3.1002z"/><path d="m116.438 24.1567c-.148 0-.247-.0926-.247-.2316v-10.6873c0-.139.099-.2316.247-.2316h2.275c.148 0 .247.0926.247.2316v.9482h.025c.568-.8557 1.582-1.4341 3.091-1.4341.94 0 1.879.3469 2.497.9253.124.1154.148.2083.05.3237l-1.311 1.5503c-.098.1154-.222.1386-.346.0461-.544-.3241-1.113-.532-1.755-.532-1.558 0-2.251 1.0407-2.251 2.8221v6.0377c0 .139-.099.2316-.247.2316z"/><path d="m125.049 22.3292c-.099-.0926-.148-.2316-.049-.3473l1.533-1.6657c.099-.1154.247-.1154.346-.0228 1.088.8096 2.695 1.6653 4.574 1.6653 2.003 0 3.165-.9483 3.165-2.2666 0-1.1337-.741-1.874-3.066-2.1748l-.89-.1158c-3.239-.4162-5.069-1.8739-5.069-4.4878 0-2.8454 2.225-4.74219 5.687-4.74219 2.102 0 4.105.62452 5.44 1.57273.124.09292.149.18546.05.32406l-1.187 1.7117c-.099.1158-.223.139-.347.0697-1.359-.8328-2.621-1.2262-4.03-1.2262-1.706 0-2.646.8793-2.646 2.1051 0 1.0872.816 1.8275 3.091 2.1284l.891.1157c3.238.4163 5.019 1.8504 5.019 4.5572 0 2.7993-2.151 4.8812-6.33 4.8812-2.473 0-4.872-.9254-6.182-2.0819z"/><path d="m142.685 24.3532c-2.399 0-3.314-1.0872-3.314-3.262v-5.8755c0-.0925-.049-.139-.148-.139h-.792c-.148 0-.247-.0925-.247-.2315v-1.5499c0-.1386.099-.2312.247-.2312h.792c.099 0 .148-.0464.148-.139v-3.05366c0-.13861.099-.23115.247-.23115h2.275c.149 0 .248.09254.248.23115v3.05366c0 .0926.049.139.148.139h1.583c.148 0 .247.0926.247.2312v1.5499c0 .139-.099.2315-.247.2315h-1.583c-.099 0-.148.0465-.148.139v5.7833c0 .7864.346 1.0408 1.113 1.0408h.618c.148 0 .247.0925.247.2315v1.8503c0 .139-.099.2316-.247.2316z"/><path d="m152.876 20.4088v-.8557c0-.0925-.05-.139-.149-.139h-1.978c-1.78 0-2.572.4627-2.572 1.5038 0 .9254.717 1.388 2.052 1.388 1.707 0 2.647-.6245 2.647-1.8971zm.296 3.7479c-.148 0-.247-.0926-.247-.2316v-.8096h-.025c-.569.7636-1.682 1.2956-3.363 1.2956-2.176 0-4.006-1.064-4.006-3.4007 0-2.4291 1.83-3.5392 4.773-3.5392h2.423c.099 0 .149-.0464.149-.139v-.532c0-1.2726-.644-1.8507-2.647-1.8507-1.335 0-2.151.3469-2.72.7635-.123.0926-.271.0693-.346-.0464l-.914-1.5267c-.075-.1158-.05-.2315.049-.3008.964-.6478 2.275-1.0872 4.228-1.0872 3.635 0 4.971 1.1565 4.971 3.8865v7.2867c0 .139-.1.2316-.248.2316z"/></g></g></svg>

<svg width="180" height="32" viewBox="0 0 180 32" fill="none" xmlns="http://www.w3.org/2000/svg">
<path fill-rule="evenodd" clip-rule="evenodd" d="M31.0345 15.5172C31.0345 24.0874 24.0874 31.0345 15.5172 31.0345C6.94735 31.0345 0 24.0874 0 15.5172C0 6.94735 6.94735 0 15.5172 0C24.0874 0 31.0345 6.94735 31.0345 15.5172Z" fill="#ECB360"/>
<path fill-rule="evenodd" clip-rule="evenodd" d="M26.8966 13.9655C26.8966 21.6784 20.8752 27.931 13.4483 27.931C6.02105 27.931 0 21.6784 0 13.9655C0 6.25263 6.02105 0 13.4483 0C20.8752 0 26.8966 6.25263 26.8966 13.9655Z" fill="#D76835"/>
<path fill-rule="evenodd" clip-rule="evenodd" d="M27.931 12.4136C27.931 19.2697 22.6047 24.8276 16.0341 24.8276C9.46424 24.8276 4.13794 19.2697 4.13794 12.4136C4.13794 5.55788 9.46424 0 16.0341 0C22.6047 0 27.931 5.55788 27.931 12.4136Z" fill="#D33A41"/>
<path fill-rule="evenodd" clip-rule="evenodd" d="M26.8966 13.4484C26.8966 19.7327 22.0333 24.8276 16.0344 24.8276C10.0354 24.8276 5.17242 19.7327 5.17242 13.4484C5.17242 7.16352 10.0354 2.06897 16.0344 2.06897C22.0333 2.06897 26.8966 7.16352 26.8966 13.4484Z" fill="#B6CB46"/>
<path fill-rule="evenodd" clip-rule="evenodd" d="M25.8621 14.4826C25.8621 20.1959 21.2304 24.8276 15.5171 24.8276C9.80409 24.8276 5.17242 20.1959 5.17242 14.4826C5.17242 8.76931 9.80409 4.13794 15.5171 4.13794C21.2304 4.13794 25.8621 8.76931 25.8621 14.4826Z" fill="#66AD4A"/>
<path fill-rule="evenodd" clip-rule="evenodd" d="M21.7241 12.4138C21.7241 16.9844 18.0189 20.6897 13.4483 20.6897C8.87738 20.6897 5.17242 16.9844 5.17242 12.4138C5.17242 7.84318 8.87738 4.13794 13.4483 4.13794C18.0189 4.13794 21.7241 7.84318 21.7241 12.4138Z" fill="#AED7DC"/>
<path fill-rule="evenodd" clip-rule="evenodd" d="M22.7586 11.3793C22.7586 15.3785 19.5166 18.6207 15.5171 18.6207C11.5175 18.6207 8.27585 15.3785 8.27585 11.3793C8.27585 7.37985 11.5175 4.13794 15.5171 4.13794C19.5166 4.13794 22.7586 7.37985 22.7586 11.3793Z" fill="#5BB1CF"/>
<path fill-rule="evenodd" clip-rule="evenodd" d="M22.7586 11.8964C22.7586 15.61 19.9798 18.6207 16.5517 18.6207C13.1237 18.6207 10.3448 15.61 10.3448 11.8964C10.3448 8.18307 13.1237 5.17242 16.5517 5.17242C19.9798 5.17242 22.7586 8.18307 22.7586 11.8964Z" fill="#25A8C3"/>
<path fill-rule="evenodd" clip-rule="evenodd" d="M15.5171 18.6207C12.6607 18.6207 10.3448 16.0732 10.3448 12.9309C10.3448 9.78854 12.6607 7.24139 15.5171 7.24139C18.3738 7.24139 20.6896 9.78854 20.6896 12.9309C20.6896 16.0732 18.3738 18.6207 15.5171 18.6207Z" fill="#1B1A18"/>
<path fill-rule="evenodd" clip-rule="evenodd" d="M18.3395 11.2904C17.8475 12.1136 16.88 12.5897 16.1783 12.3531C15.4765 12.1167 15.3067 11.2574 15.7984 10.4339C16.2905 9.61041 17.258 9.1346 17.9597 9.37094C18.6614 9.60728 18.8312 10.4666 18.3395 11.2904Z" fill="#FFFFFE"/>
<path fill-rule="evenodd" clip-rule="evenodd" d="M157.671 21.3341C157.424 20.6403 157.3 19.761 157.3 18.5813C157.3 17.4015 157.424 16.5226 157.671 15.8284C158.363 13.8391 160.194 12.7519 162.592 12.7519C164.372 12.7519 165.782 13.4225 166.721 14.4868C166.796 14.5794 166.82 14.7184 166.697 14.8109L165.139 16.0828C165.015 16.1753 164.891 16.1525 164.793 16.0367C164.199 15.4122 163.581 15.0653 162.592 15.0653C161.529 15.0653 160.713 15.5512 160.366 16.5226C160.169 17.0778 160.119 17.7256 160.119 18.5813C160.119 19.4373 160.169 20.1083 160.366 20.6635C160.713 21.6117 161.529 22.0976 162.592 22.0976C163.581 22.0976 164.199 21.7507 164.793 21.1262C164.891 21.0104 165.015 21.0104 165.139 21.103L166.697 22.3753C166.82 22.4678 166.796 22.5836 166.721 22.6989C165.782 23.7401 164.372 24.4111 162.592 24.4111C160.194 24.4111 158.363 23.3238 157.671 21.3341Z" fill="#1B1A18"/>
<path fill-rule="evenodd" clip-rule="evenodd" d="M176.376 24.1567C176.203 24.1567 176.079 24.0874 175.98 23.9252L172.964 19.2523L171.356 20.9872V23.9252C171.356 24.0642 171.258 24.1567 171.109 24.1567H168.834C168.686 24.1567 168.587 24.0642 168.587 23.9252V8.65705C168.587 8.51844 168.686 8.4259 168.834 8.4259H171.109C171.258 8.4259 171.356 8.51844 171.356 8.65705V17.7256L175.437 13.2378C175.585 13.0756 175.709 13.0063 175.906 13.0063H178.429C178.577 13.0063 178.626 13.1449 178.527 13.2378L174.744 17.309L179.096 23.9252C179.171 24.0177 179.121 24.1567 178.973 24.1567H176.376Z" fill="#1B1A18"/>
<path fill-rule="evenodd" clip-rule="evenodd" d="M43.7924 21.7507H47.3038C48.9359 21.7507 49.8507 20.8715 49.8507 19.5531C49.8507 18.2576 48.9359 17.3787 47.3038 17.3787H43.7924C43.6938 17.3787 43.6441 17.4248 43.6441 17.5173V21.6118C43.6441 21.7043 43.6938 21.7507 43.7924 21.7507ZM47.1555 14.9728C48.6392 14.9728 49.5541 14.1399 49.5541 12.9137C49.5541 11.6647 48.6392 10.8318 47.1555 10.8318H43.7924C43.6938 10.8318 43.6441 10.8779 43.6441 10.9705V14.8338C43.6441 14.9263 43.6938 14.9728 43.7924 14.9728H47.1555ZM40.7263 8.65705C40.7263 8.51844 40.8254 8.4259 40.9733 8.4259H47.2297C50.7904 8.4259 52.4718 10.0916 52.4718 12.6129C52.4718 14.3943 51.5818 15.4122 50.5182 15.9442V15.9906C51.5569 16.3604 52.7685 17.6098 52.7685 19.5299C52.7685 22.6529 50.6666 24.1567 46.9823 24.1567H40.9733C40.8254 24.1567 40.7263 24.0642 40.7263 23.9252V8.65705Z" fill="#1B1A18"/>
<path fill-rule="evenodd" clip-rule="evenodd" d="M54.8199 24.1567C54.6712 24.1567 54.5722 24.0641 54.5722 23.9251V13.2378C54.5722 13.0988 54.6712 13.0062 54.8199 13.0062H57.0946C57.2429 13.0062 57.3419 13.0988 57.3419 13.2378V14.186H57.3668C57.9353 13.3303 58.9491 12.7519 60.4577 12.7519C61.397 12.7519 62.3367 13.0988 62.9549 13.6772C63.0787 13.7926 63.1036 13.8855 63.0042 14.0009L61.6937 15.5512C61.595 15.6666 61.4712 15.6898 61.3477 15.5973C60.8037 15.2732 60.2348 15.0653 59.5922 15.0653C58.0343 15.0653 57.3419 16.106 57.3419 17.8874V23.9251C57.3419 24.0641 57.2429 24.1567 57.0946 24.1567H54.8199Z" fill="#1B1A18"/>
<path fill-rule="evenodd" clip-rule="evenodd" d="M70.6072 20.6403C70.8052 20.0618 70.8546 19.5299 70.8546 18.5813C70.8546 17.6331 70.8052 17.1239 70.6072 16.5226C70.2608 15.5973 69.4947 15.0653 68.3818 15.0653C67.269 15.0653 66.4776 15.5973 66.1316 16.5226C65.934 17.1239 65.8843 17.6331 65.8843 18.5813C65.8843 19.5299 65.934 20.0618 66.1316 20.6403C66.4776 21.5657 67.269 22.0976 68.3818 22.0976C69.4947 22.0976 70.2608 21.5657 70.6072 20.6403ZM63.4612 21.3341C63.189 20.5478 63.0656 19.8075 63.0656 18.5813C63.0656 17.3554 63.189 16.6152 63.4612 15.8284C64.1287 13.8855 65.9584 12.7519 68.3818 12.7519C70.7804 12.7519 72.6101 13.8855 73.278 15.8284C73.5498 16.6152 73.6736 17.3554 73.6736 18.5813C73.6736 19.8075 73.5498 20.5478 73.278 21.3341C72.6101 23.2774 70.7804 24.4111 68.3818 24.4111C65.9584 24.4111 64.1287 23.2774 63.4612 21.3341Z" fill="#1B1A18"/>
<path fill-rule="evenodd" clip-rule="evenodd" d="M85.6683 24.1567C85.5196 24.1567 85.421 24.0642 85.3713 23.9252L83.0717 16.8002H83.0224L80.698 23.9252C80.6483 24.0642 80.5497 24.1567 80.401 24.1567H78.3736C78.2249 24.1567 78.1263 24.0642 78.077 23.9252L74.3182 13.2378C74.2685 13.0988 74.343 13.0063 74.4914 13.0063H76.8651C77.0383 13.0063 77.1373 13.0756 77.1866 13.2378L79.4861 20.5942H79.5358L81.8105 13.2378C81.8602 13.0988 81.9837 13.0063 82.132 13.0063H83.9124C84.0608 13.0063 84.1846 13.0988 84.2339 13.2378L86.6573 20.5942H86.7067L88.8827 13.2378C88.932 13.0756 89.0311 13.0063 89.2042 13.0063H91.5779C91.7263 13.0063 91.8004 13.0988 91.7511 13.2378L87.9923 23.9252C87.943 24.0642 87.844 24.1567 87.6957 24.1567H85.6683Z" fill="#1B1A18"/>
<path fill-rule="evenodd" clip-rule="evenodd" d="M92.2387 22.6529C92.14 22.5603 92.14 22.4217 92.2387 22.3292L93.6482 20.9411C93.7472 20.8486 93.8955 20.8486 93.9946 20.9411C94.8601 21.6814 96.2448 22.2134 97.4811 22.2134C98.94 22.2134 99.6817 21.6582 99.6817 20.8947C99.6817 20.2237 99.2615 19.8075 97.7036 19.6685L96.4176 19.5531C93.9946 19.3216 92.7578 18.165 92.7578 16.2679C92.7578 14.1167 94.4147 12.7519 97.3821 12.7519C99.2367 12.7519 100.795 13.3303 101.858 14.1167C101.982 14.2092 101.982 14.3478 101.907 14.4404L100.696 15.8056C100.597 15.9209 100.473 15.9209 100.35 15.8516C99.6075 15.3657 98.4208 14.9263 97.2338 14.9263C96.0468 14.9263 95.4286 15.4122 95.4286 16.0828C95.4286 16.7309 95.8491 17.1239 97.3821 17.2629L98.6678 17.3787C101.165 17.6098 102.352 18.8128 102.352 20.6403C102.352 22.8612 100.621 24.4111 97.3573 24.4111C94.9094 24.4111 93.228 23.5089 92.2387 22.6529Z" fill="#1B1A18"/>
<path fill-rule="evenodd" clip-rule="evenodd" d="M111.444 16.3836C111.123 15.4815 110.233 14.9495 109.12 14.9495C107.983 14.9495 107.092 15.4815 106.771 16.3836C106.672 16.6612 106.622 16.9388 106.622 17.3322C106.622 17.4248 106.672 17.4712 106.771 17.4712H111.444C111.543 17.4712 111.593 17.4248 111.593 17.3322C111.593 16.9388 111.543 16.6612 111.444 16.3836ZM104.249 21.3109C104.001 20.5942 103.828 19.7382 103.828 18.5813C103.828 17.4248 103.977 16.5458 104.224 15.8284C104.891 13.8855 106.721 12.7519 109.095 12.7519C111.543 12.7519 113.324 13.9316 113.991 15.8284C114.264 16.6152 114.387 17.3787 114.387 19.1829C114.387 19.3216 114.288 19.4141 114.115 19.4141H106.771C106.672 19.4141 106.622 19.4606 106.622 19.5531C106.622 19.8768 106.697 20.1544 106.796 20.4088C107.191 21.4963 108.131 22.0976 109.466 22.0976C110.801 22.0976 111.667 21.635 112.26 21.0337C112.384 20.9179 112.508 20.8947 112.631 20.9872L114.09 22.1902C114.214 22.2827 114.214 22.3985 114.115 22.5142C113.101 23.6243 111.42 24.4111 109.219 24.4111C106.697 24.4111 104.916 23.2545 104.249 21.3109Z" fill="#1B1A18"/>
<path fill-rule="evenodd" clip-rule="evenodd" d="M116.438 24.1567C116.29 24.1567 116.191 24.0641 116.191 23.9251V13.2378C116.191 13.0988 116.29 13.0062 116.438 13.0062H118.713C118.861 13.0062 118.96 13.0988 118.96 13.2378V14.186H118.985C119.553 13.3303 120.567 12.7519 122.076 12.7519C123.016 12.7519 123.955 13.0988 124.573 13.6772C124.697 13.7926 124.721 13.8855 124.623 14.0009L123.312 15.5512C123.214 15.6666 123.09 15.6898 122.966 15.5973C122.422 15.2732 121.853 15.0653 121.211 15.0653C119.653 15.0653 118.96 16.106 118.96 17.8874V23.9251C118.96 24.0641 118.861 24.1567 118.713 24.1567H116.438Z" fill="#1B1A18"/>
<path fill-rule="evenodd" clip-rule="evenodd" d="M125.049 22.3292C124.95 22.2366 124.901 22.0976 125 21.9819L126.533 20.3162C126.632 20.2008 126.78 20.2008 126.879 20.2934C127.967 21.103 129.574 21.9587 131.453 21.9587C133.456 21.9587 134.618 21.0104 134.618 19.6921C134.618 18.5584 133.877 17.8181 131.552 17.5173L130.662 17.4015C127.423 16.9853 125.593 15.5276 125.593 12.9137C125.593 10.0683 127.818 8.17151 131.28 8.17151C133.382 8.17151 135.385 8.79603 136.72 9.74424C136.844 9.83716 136.869 9.9297 136.77 10.0683L135.583 11.78C135.484 11.8958 135.36 11.919 135.236 11.8497C133.877 11.0169 132.615 10.6235 131.206 10.6235C129.5 10.6235 128.56 11.5028 128.56 12.7286C128.56 13.8158 129.376 14.5561 131.651 14.857L132.542 14.9727C135.78 15.389 137.561 16.8231 137.561 19.5299C137.561 22.3292 135.41 24.4111 131.231 24.4111C128.758 24.4111 126.359 23.4857 125.049 22.3292Z" fill="#1B1A18"/>
<path fill-rule="evenodd" clip-rule="evenodd" d="M142.685 24.3532C140.286 24.3532 139.371 23.266 139.371 21.0912V15.2157C139.371 15.1232 139.322 15.0767 139.223 15.0767H138.431C138.283 15.0767 138.184 14.9842 138.184 14.8452V13.2953C138.184 13.1567 138.283 13.0641 138.431 13.0641H139.223C139.322 13.0641 139.371 13.0177 139.371 12.9251V9.87144C139.371 9.73283 139.47 9.64029 139.618 9.64029H141.893C142.042 9.64029 142.141 9.73283 142.141 9.87144V12.9251C142.141 13.0177 142.19 13.0641 142.289 13.0641H143.872C144.02 13.0641 144.119 13.1567 144.119 13.2953V14.8452C144.119 14.9842 144.02 15.0767 143.872 15.0767H142.289C142.19 15.0767 142.141 15.1232 142.141 15.2157V20.999C142.141 21.7854 142.487 22.0398 143.254 22.0398H143.872C144.02 22.0398 144.119 22.1323 144.119 22.2713V24.1216C144.119 24.2606 144.02 24.3532 143.872 24.3532H142.685Z" fill="#1B1A18"/>
<path fill-rule="evenodd" clip-rule="evenodd" d="M152.876 20.4088V19.5531C152.876 19.4606 152.826 19.4141 152.727 19.4141H150.749C148.969 19.4141 148.177 19.8768 148.177 20.9179C148.177 21.8433 148.894 22.3059 150.229 22.3059C151.936 22.3059 152.876 21.6814 152.876 20.4088ZM153.172 24.1567C153.024 24.1567 152.925 24.0641 152.925 23.9251V23.1155H152.9C152.331 23.8791 151.218 24.4111 149.537 24.4111C147.361 24.4111 145.531 23.3471 145.531 21.0104C145.531 18.5813 147.361 17.4712 150.304 17.4712H152.727C152.826 17.4712 152.876 17.4248 152.876 17.3322V16.8002C152.876 15.5276 152.232 14.9495 150.229 14.9495C148.894 14.9495 148.078 15.2964 147.509 15.713C147.386 15.8056 147.238 15.7823 147.163 15.6666L146.249 14.1399C146.174 14.0241 146.199 13.9084 146.298 13.8391C147.262 13.1913 148.573 12.7519 150.526 12.7519C154.161 12.7519 155.497 13.9084 155.497 16.6384V23.9251C155.497 24.0641 155.397 24.1567 155.249 24.1567H153.172Z" fill="#1B1A18"/>
</svg>
